Color Chrome.costyle
<?xml version="1.0"?>
<SL Engine="1300">
	<E K="Name" V="Color Chrome" />
	<E K="StyleSource" V="Styles" />
	<E K="UUID" V="D5CD5886-636A-4E70-B8D6-1D75C19B7DF5" />
</SL>
<LDS>
	<LD>
		<LA>
			<E K="AIColorGrade" V="0" />
			<E K="ColorCorrections" V="1,1,0,-1,3,-0.800000011920929,214,187.937301635742,28.5274124145508,-14.4818420410156,12.8212280273438,-61.7298355102539,10.2464370727539,20,0,0,0,0;1,1,0,0,3,-1.5,129.500015258789,183.000015258789,76.0000076293945,-9.77593994140625,59.8741760253906,-42.1602249145508,39.2349739074707,20,0,0,0,0;1,1,0,2,15,-0.800000011920929,105,22.7423725128174,24.2173004150391,-21.9896545410156,21.9329833984375,-40.914665222168,21.6594009399414,20,0,0,0,0;1,1,0,3,2,-0.407936811447144,173.999984741211,97.9633560180664,44.9205055236816,-8.91879272460938,6.51126098632812,-58.4564437866211,20.2991218566895,20,0,0,0,0;1,1,0,-5,6,0.600000023841858,28.7710361480713,99,58.5003967285156,-18.7325744628906,21.2674255371094,-45.6570892333984,18.6283912658691,20,0,0,0,0" />
			<E K="Enabled" V="1" />
			<E K="Moire" V="0;0" />
			<E K="Name" V="Color Chrome" />
			<E K="Opacity" V="100" />
			<E K="UsmMethod" V="0" />
		</LA>
		<MDS>
			<MD>
				<E K="BlendMode" V="0" />
				<E K="Density" V="1" />
				<E K="MaskType" V="1" />
			</MD>
		</MDS>
	</LD>
</LDS>
